X:1091
T:o' A The Airts
C:Joe Buchanan's Scottish Tome - Page 577.2
I:577 2
Z:Carl Allison
R:Folk
L:1/4
M:3/4
K:G
D/E/ | G2 G | G2 G | (G2 D) | (d2 B) | (A2 G) | (F E2)- | E2 (D/E/) |
G2 G | G2 G | (G2 D) | (G2 B) | (d2 e) | (g2 B) | d3- | d2 e |
(d2 e) | (g2 B) | (d2 B) | (A2 G) | (A2 B) | (c3/2 (3B/A/G/) | F E2- | E2 (D/E/) |
G2 G | G2 D | (G2 e) | (G2 d) | (d B2) | (A2 B) | G3- | G2 (D/C/) |
(B,2 D) | (G2 d) | (E2 D) | (G2 A) | (B2 d) | (c3/2 ((3B/A/G/)) | F E2- | E2 (D/C/) |
(B,2 D) | (G2 D) | (E2 D) | (G2 A) | (B2 c) | (d3/2 ((3e/f/g/)) | d3- | d2 (e/f/) |
(g2 f) | (e2 d) | (e2 d) | (c2 B) | (A2 B) | (c3/2 ((3B/A/G/)) | F E2- | E2 (D/E/) |
G2 G | G2 G | (G2 D) | (G2 e) | (d B2) | A2 B | G3- | G2 |]
